src/static/logos/cross-browser-testing.svg

<?xml version="1.0" encoding="UTF-8"?>
<svg width="256px" height="256px" viewBox="0 0 256 256" version="1.1" xmlns="http://www.w3.org/2000/svg" xmlns:xlink="http://www.w3.org/1999/xlink" preserveAspectRatio="xMidYMid">
    <g>
				<rect fill="#50E4EA" x="7" y="7.01346093" width="242" height="242"></rect>
				<path d="M242.512146,13.4595163 L242.512146,242.540484 L13.4609317,242.540484 L13.4609317,13.4595163 L242.512146,13.4595163 M255.973078,0 L0,0 L0,256 L256,256 L256,0 L255.973078,0 Z" fill="#05263A"></path>
				<path d="M178.168893,167.750131 L182.422547,183.876328 C168.88085,198.441056 152.916185,210.609738 135.282364,219.790094 C126.398149,216.99022 117.783153,213.436534 109.545063,209.102114 C104.699127,206.571459 99.9608792,203.825429 95.3841624,200.81018 C91.4535703,198.225681 87.6306657,195.479651 83.9962141,192.625933 L178.168893,167.750131 Z M63.3740667,84.023136 L88.2229467,178.168893 L72.0967504,182.422547 C57.5320223,168.88085 45.3902619,152.943107 36.1829845,135.282364 C38.9828583,126.398149 42.5365443,117.783153 46.8709643,109.545063 C49.3746977,104.699127 52.1476496,99.9608792 55.1628983,95.4110842 C57.7473972,91.4804922 60.4934273,87.6306657 63.3740667,84.023136 Z M183.849406,73.6043748 C198.414134,87.1460721 210.555894,103.083815 219.763172,120.744558 C216.963298,129.628773 213.38269,138.243769 209.075192,146.481859 C206.571459,151.327795 203.798507,156.066043 200.783258,160.615838 C198.198759,164.54643 195.452729,168.396256 192.599011,172.030708 L167.72321,77.8580292 L183.849406,73.6043748 Z M120.690714,36.2368283 C129.574929,39.0367021 138.189925,42.6173099 146.428016,46.9248081 C151.273951,49.4554632 155.985277,52.2014933 160.561994,55.216742 C164.519508,57.7743191 168.342412,60.547271 171.976864,63.4009885 L77.8041855,88.2767904 L73.5505311,72.1505942 C87.0922284,57.585866 103.056893,45.4441056 120.690714,36.2368283 Z" fill="#05263A"></path>
		</g>
</svg>

<svg width="256" height="256" xmlns="http://www.w3.org/2000/svg" preserveAspectRatio="xMidYMid"><path fill="#50E4EA" d="M7 7.013h242v242H7z"/><path d="M242.512 13.46v229.08H13.461V13.46h229.051M255.973 0H0v256h256V0h-.027z" fill="#05263A"/><path d="M178.169 167.75l4.254 16.126a174.369 174.369 0 01-47.14 35.914c-8.885-2.8-17.5-6.353-25.738-10.688-4.846-2.53-9.584-5.277-14.16-8.292a167.542 167.542 0 01-11.389-8.184l94.173-24.876zM63.374 84.023l24.849 94.146-16.126 4.254a174.499 174.499 0 01-35.914-47.14c2.8-8.885 6.354-17.5 10.688-25.738a151.552 151.552 0 018.292-14.134c2.584-3.93 5.33-7.78 8.211-11.388zM183.85 73.604a174.499 174.499 0 0135.914 47.14 158.09 158.09 0 01-10.688 25.738 151.551 151.551 0 01-8.292 14.134c-2.584 3.93-5.33 7.78-8.184 11.415l-24.876-94.173 16.126-4.254zm-63.158-37.367c8.884 2.8 17.499 6.38 25.737 10.688a161.613 161.613 0 0114.134 8.292c3.958 2.557 7.78 5.33 11.415 8.184L77.804 88.277 73.551 72.15c13.541-14.565 29.506-26.707 47.14-35.914z" fill="#05263A"/></svg>
